X:455
T: Brendan Begley's
S: "Johnny O'Leary of Sliabh Luachra" (#40)
Z: B.Black
L: 1/8
M: 6/8
R: jig
K: G
B|ded BGB|dBG A2A|ded BGB|dBG G2B|
ded BGB|dBG G2g|f/g/af gfe|dBG G2 :|
B/d/|eAA fAA|edB GBd|eAA g2A|dBG GBd|
eAA fAA|edB A2g|f/g/af gfe|1 dBG G2 :|2\
dBG G3 ||
